static/assets/items/thorium.svg

<svg xmlns="http://www.w3.org/2000/svg" viewBox="0 0 32 32"><path d="M0 .5V0h32v32H0V.5M17.5 28q.5 0 .875-.125T19 27.5l.5-.5.5-.5.5-.5.5-.5.5-.5.5-.5.5-.5.5-.5.5-.5.5-.5.5-.5q.25-.25.375-.625T25 20.5v-1q0-.5.125-.875T25.5 18l.5-.5.5-.5.5-.5.5-.5.5-.5.5-.5q.25-.25.375-.625T29 13.5v-1-1-1-1-1q0-.5-.125-.875T28.5 7l-.5-.5-.5-.5-.5-.5-.5-.5-.5-.5-.5-.5-.5-.5q-.25-.25-.625-.375T23.5 3h-2q-.5 0-.875.125T20 3.5l-.5.5-.5.5-.5.5-.5.5-.5.5-.5.5-.5.5q-.25.25-.375.625T15.5 8h-2q-.5 0-.5-.5v-1q0-.5-.125-.875T12.5 5l-.5-.5-.5-.5-.5-.5q-.25-.25-.625-.375T9.5 3h-3q-.5 0-.875.125T5 3.5l-.5.5-.5.5-.5.5-.5.5-.5.5q-.25.25-.375.625T2 7.5v3q0 .5.125.875T2.5 12l.5.5.5.5.5.5q.25.25.625.375t.5.5q.125.375.375.625l.5.5.5.5q.25.25.375.625T7 17.5v2q0 .5.125.875T7.5 21l.5.5.5.5.5.5.5.5.5.5q.25.25.625.375t.5.5q.125.375.375.625l.5.5.5.5.5.5.5.5.5.5q.25.25.625.375T15.5 28h2" fill="none"/><path d="M5 3.5q.25-.25.625-.375T6.5 3h3q.5 0 .875.125T11 3.5l.5.5.5.5.5.5q.25.25.375.625T13 6.5V8v-.75.25q0 .25.125.375L13.25 8l-.0625-.0625-.0625-.0625-.1875.4375Q12.75 8.75 12.5 9l-.5.5-.5.5-.5.5-.5.5-.5.5-.5.5-.5.5-.5.5-.5.5q-.25.25-.625.375T6.5 14q-.5 0-1.0313.0313l-.5312.0312L5 14.125l.0625.0625-.125-.125q-.125-.125-.3125-.1875l-.1875-.0625.2813.0938L5 14l-.375-.125Q4.25 13.75 4 13.5l-.5-.5-.5-.5-.5-.5q-.25-.25-.375-.625T2 10.5v-1-1-1q0-.5.125-.875T2.5 6l.5-.5.5-.5.5-.5.5-.5.5-.5M20 3.5q.25-.25.625-.375T21.5 3h2q.5 0 .875.125T25 3.5l.5.5.5.5.5.5.5.5.5.5.5.5.5.5q.25.25.375.625T29 8.5V12l-.375.125q-.375.125-.625.375l-.5.5-.5.5-.5.5-.5.5-.5.5-.5.5-.5.5-.5.5q-.25.25-.625.375t-.75 0Q22.25 16.75 22 16.5l-.5-.5-.5-.5-.5-.5-.5-.5-.5-.5-.5-.5-.5-.5-.5-.5-.5-.5-.5-.5-.5-.5q-.25-.25-.375-.625T16 9.5q0-.5-.0469-1.0469l-.0468-.5468-.0782.0468L15.75 8l.1563-.0938q.1562-.0937.2187-.2812l.0625-.1875-.0938.2813L16 8l.125-.375Q16.25 7.25 16.5 7l.5-.5.5-.5.5-.5.5-.5.5-.5.5-.5.5-.5m9 8.625v-.875 1-.125" fill="#f9a3c7"/><path d="M12.9375 8.3125l.1875-.4375-.0625-.0625L13 7.75l.125.125Q13.25 8 13.5 8h.25H13h3-.75.25q.25 0 .4063-.0938l.1562-.0937-.0781.0469-.0782.0469.047.5468Q16 9 16 9.5q0 .5.125.875T16.5 11l.5.5.5.5.5.5.5.5.5.5.5.5.5.5.5.5.5.5.5.5.5.5q.25.25.625.375t.75 0q.375-.125.625-.375l.5-.5.5-.5.5-.5.5-.5.5-.5.5-.5.5-.5.5-.5q.25-.25.625-.375L29 12v1.5q0 .5-.125.875T28.5 15l-.5.5-.5.5-.5.5-.5.5-.5.5-.5.5q-.25.25-.375.625T25 19.5v1q0 .5-.125.875T24.5 22l-.5.5-.5.5-.5.5-.5.5-.5.5-.5.5-.5.5-.5.5-.5.5-.5.5-.5.5q-.25.25-.625.375T17.5 28h-2q-.5 0-.875-.125T14 27.5l-.5-.5-.5-.5-.5-.5-.5-.5-.5-.5q-.25-.25-.375-.625L11 24l.0938.2813.0937.2812-.0625-.1875q-.0625-.1875-.1875-.3125l-.125-.125.0625.0625.0625.0625.5313-.0313Q12 24 12.5 24h2q.5 0 .875-.125T16 23.5l.5-.5.5-.5.5-.5.5-.5.5-.5.5-.5.5-.5q.25-.25.375-.625T20 18.5q0-.5-.125-.875T19.5 17l-.5-.5-.5-.5-.5-.5-.5-.5-.5-.5-.5-.5-.5-.5q-.25-.25-.625-.375T14.5 13h-1q-.5 0-.875.125T12 13.5l-.5.5-.5.5-.5.5-.5.5-.5.5-.5.5-.5.5-.5.5q-.25.25-.625.375L7 18v-.5q0-.5-.125-.875T6.5 16l-.5-.5-.5-.5q-.25-.25-.375-.625L5 14l.0938.2813.0937.2812-.0625-.1875q-.0625-.1875-.1875-.3125l-.125-.125L4.875 14l.0625.0625.5313-.0313Q6 14 6.5 14q.5 0 .875-.125T8 13.5l.5-.5.5-.5.5-.5.5-.5.5-.5.5-.5.5-.5.5-.5.5-.5q.25-.25.4375-.6875M7 17.625v.625V18v-.75.375m22-5.25v-.625 1-.375" fill="#cb8ebf"/><path d="M12 13.5q.25-.25.625-.375T13.5 13h1q.5 0 .875.125T16 13.5l.5.5.5.5.5.5.5.5.5.5.5.5.5.5q.25.25.375.625T20 18.5q0 .5-.125.875T19.5 20l-.5.5-.5.5-.5.5-.5.5-.5.5-.5.5-.5.5q-.25.25-.625.375T14.5 24h-2q-.5 0-1.0313.0313l-.5312.0312.0625.0625.0625.0625-.125-.125q-.125-.125-.3125-.1875l-.1875-.0625.2813.0938L11 24l-.375-.125Q10.25 23.75 10 23.5l-.5-.5-.5-.5-.5-.5-.5-.5-.5-.5q-.25-.25-.375-.625T7 19.5V18l.375-.125Q7.75 17.75 8 17.5l.5-.5.5-.5.5-.5.5-.5.5-.5.5-.5.5-.5.5-.5m-5 4.375v.875-.25-.75.125" fill="#f9a3c7"/></svg>

<?xml version="1.0" encoding="UTF-8" standalone="no"?>
<!-- Created with Inkscape (http://www.inkscape.org/) -->

<svg
   xmlns:dc="http://purl.org/dc/elements/1.1/"
   xmlns:cc="http://creativecommons.org/ns#"
   xmlns:rdf="http://www.w3.org/1999/02/22-rdf-syntax-ns#"
   xmlns:svg="http://www.w3.org/2000/svg"
   xmlns="http://www.w3.org/2000/svg"
   xmlns:sodipodi="http://sodipodi.sourceforge.net/DTD/sodipodi-0.dtd"
   xmlns:inkscape="http://www.inkscape.org/namespaces/inkscape"
   version="1.1"
   id="svg11470"
   width="32"
   height="32"
   viewBox="0 0 32 32"
   sodipodi:docname="thorium.svg"
   inkscape:version="0.92.5 (2060ec1f9f, 2020-04-08)">
  <metadata
     id="metadata11476">
    <rdf:RDF>
      <cc:Work
         rdf:about="">
        <dc:format>image/svg+xml</dc:format>
        <dc:type
           rdf:resource="http://purl.org/dc/dcmitype/StillImage" />
        <dc:title></dc:title>
      </cc:Work>
    </rdf:RDF>
  </metadata>
  <defs
     id="defs11474" />
  <sodipodi:namedview
     pagecolor="#ffffff"
     bordercolor="#666666"
     borderopacity="1"
     objecttolerance="10"
     gridtolerance="10"
     guidetolerance="10"
     inkscape:pageopacity="0"
     inkscape:pageshadow="2"
     inkscape:window-width="1366"
     inkscape:window-height="705"
     id="namedview11472"
     showgrid="false"
     inkscape:zoom="7.375"
     inkscape:cx="16"
     inkscape:cy="16"
     inkscape:window-x="-8"
     inkscape:window-y="-8"
     inkscape:window-maximized="1"
     inkscape:current-layer="svg11470" />
  <g
     transform="translate(0 0)"
     id="g12033">
    <path
       style="fill:#000000;fill-opacity:0"
       d="M 0,0.5 V 0 H 0.5 1 1.5 2 2.5 3 3.5 4 4.5 5 5.5 6 6.5 7 7.5 8 8.5 9 9.5 10 10.5 11 11.5 12 12.5 13 13.5 14 14.5 15 15.5 16 16.5 17 17.5 18 18.5 19 19.5 20 20.5 21 21.5 22 22.5 23 23.5 24 24.5 25 25.5 26 26.5 27 27.5 28 28.5 29 29.5 30 30.5 31 31.5 32 V 0.5 1 1.5 2 2.5 3 3.5 4 4.5 5 5.5 6 6.5 7 7.5 8 8.5 9 9.5 10 10.5 11 11.5 12 12.5 13 13.5 14 14.5 15 15.5 16 16.5 17 17.5 18 18.5 19 19.5 20 20.5 21 21.5 22 22.5 23 23.5 24 24.5 25 25.5 26 26.5 27 27.5 28 28.5 29 29.5 30 30.5 31 31.5 32 H 31.5 31 30.5 30 29.5 29 28.5 28 27.5 27 26.5 26 25.5 25 24.5 24 23.5 23 22.5 22 21.5 21 20.5 20 19.5 19 18.5 18 17.5 17 16.5 16 15.5 15 14.5 14 13.5 13 12.5 12 11.5 11 10.5 10 9.5 9 8.5 8 7.5 7 6.5 6 5.5 5 4.5 4 3.5 3 2.5 2 1.5 1 0.5 0 V 31.5 31 30.5 30 29.5 29 28.5 28 27.5 27 26.5 26 25.5 25 24.5 24 23.5 23 22.5 22 21.5 21 20.5 20 19.5 19 18.5 18 17.5 17 16.5 16 15.5 15 14.5 14 13.5 13 12.5 12 11.5 11 10.5 10 9.5 9 8.5 8 7.5 7 6.5 6 5.5 5 4.5 4 3.5 3 2.5 2 1.5 1 0.5 M 17.5,28 Q 18,28 18.375,27.875 18.75,27.75 19,27.5 19.25,27.25 19.5,27 19.75,26.75 20,26.5 20.25,26.25 20.5,26 20.75,25.75 21,25.5 21.25,25.25 21.5,25 21.75,24.75 22,24.5 22.25,24.25 22.5,24 22.75,23.75 23,23.5 23.25,23.25 23.5,23 23.75,22.75 24,22.5 24.25,22.25 24.5,22 24.75,21.75 24.875,21.375 25,21 25,20.5 25,20 25,19.5 25,19 25.125,18.625 25.25,18.25 25.5,18 25.75,17.75 26,17.5 26.25,17.25 26.5,17 26.75,16.75 27,16.5 27.25,16.25 27.5,16 27.75,15.75 28,15.5 28.25,15.25 28.5,15 28.75,14.75 28.875,14.375 29,14 29,13.5 q 0,-0.5 0,-1 0,-0.5 0,-1 0,-0.5 0,-1 0,-0.5 0,-1 Q 29,9 29,8.5 29,8 28.875,7.625 28.75,7.25 28.5,7 28.25,6.75 28,6.5 27.75,6.25 27.5,6 27.25,5.75 27,5.5 26.75,5.25 26.5,5 26.25,4.75 26,4.5 25.75,4.25 25.5,4 25.25,3.75 25,3.5 24.75,3.25 24.375,3.125 24,3 23.5,3 23,3 22.5,3 22,3 21.5,3 21,3 20.625,3.125 20.25,3.25 20,3.5 19.75,3.75 19.5,4 19.25,4.25 19,4.5 18.75,4.75 18.5,5 18.25,5.25 18,5.5 17.75,5.75 17.5,6 17.25,6.25 17,6.5 16.75,6.75 16.5,7 16.25,7.25 16.125,7.625 16,8 15.5,8 15,8 14.5,8 14,8 13.5,8 13,8 13,7.5 13,7 13,6.5 13,6 12.875,5.625 12.75,5.25 12.5,5 12.25,4.75 12,4.5 11.75,4.25 11.5,4 11.25,3.75 11,3.5 10.75,3.25 10.375,3.125 10,3 9.5,3 9,3 8.5,3 8,3 7.5,3 7,3 6.5,3 6,3 5.625,3.125 5.25,3.25 5,3.5 4.75,3.75 4.5,4 4.25,4.25 4,4.5 3.75,4.75 3.5,5 3.25,5.25 3,5.5 2.75,5.75 2.5,6 2.25,6.25 2.125,6.625 2,7 2,7.5 2,8 2,8.5 2,9 2,9.5 2,10 2,10.5 2,11 2.125,11.375 2.25,11.75 2.5,12 2.75,12.25 3,12.5 3.25,12.75 3.5,13 3.75,13.25 4,13.5 4.25,13.75 4.625,13.875 5,14 5.125,14.375 5.25,14.75 5.5,15 5.75,15.25 6,15.5 6.25,15.75 6.5,16 6.75,16.25 6.875,16.625 7,17 7,17.5 7,18 7,18.5 7,19 7,19.5 7,20 7.125,20.375 7.25,20.75 7.5,21 q 0.25,0.25 0.5,0.5 0.25,0.25 0.5,0.5 0.25,0.25 0.5,0.5 0.25,0.25 0.5,0.5 0.25,0.25 0.5,0.5 0.25,0.25 0.625,0.375 0.375,0.125 0.5,0.5 0.125,0.375 0.375,0.625 0.25,0.25 0.5,0.5 0.25,0.25 0.5,0.5 0.25,0.25 0.5,0.5 0.25,0.25 0.5,0.5 0.25,0.25 0.5,0.5 0.25,0.25 0.625,0.375 Q 15,28 15.5,28 q 0.5,0 1,0 0.5,0 1,0"
       id="path12023" />
    <path
       style="fill:#f9a3c7;fill-opacity:1"
       d="M 5,3.5 Q 5.25,3.25 5.625,3.125 6,3 6.5,3 7,3 7.5,3 8,3 8.5,3 9,3 9.5,3 10,3 10.375,3.125 10.75,3.25 11,3.5 11.25,3.75 11.5,4 11.75,4.25 12,4.5 12.25,4.75 12.5,5 12.75,5.25 12.875,5.625 13,6 13,6.5 13,7 13,7.5 V 8 7.625 7.25 7.5 q 0,0.25 0.125,0.375 L 13.25,8 13.1875,7.9375 13.125,7.875 12.9375,8.3125 Q 12.75,8.75 12.5,9 12.25,9.25 12,9.5 11.75,9.75 11.5,10 11.25,10.25 11,10.5 10.75,10.75 10.5,11 10.25,11.25 10,11.5 9.75,11.75 9.5,12 9.25,12.25 9,12.5 8.75,12.75 8.5,13 8.25,13.25 8,13.5 7.75,13.75 7.375,13.875 7,14 6.5,14 6,14 5.46875,14.03125 L 4.9375,14.0625 5,14.125 5.0625,14.1875 4.9375,14.0625 Q 4.8125,13.9375 4.625,13.875 L 4.4375,13.8125 4.71875,13.90625 5,14 4.625,13.875 Q 4.25,13.75 4,13.5 3.75,13.25 3.5,13 3.25,12.75 3,12.5 2.75,12.25 2.5,12 2.25,11.75 2.125,11.375 2,11 2,10.5 2,10 2,9.5 2,9 2,8.5 2,8 2,7.5 2,7 2.125,6.625 2.25,6.25 2.5,6 2.75,5.75 3,5.5 3.25,5.25 3.5,5 3.75,4.75 4,4.5 4.25,4.25 4.5,4 4.75,3.75 5,3.5"
       id="path12025" />
    <path
       style="fill:#f9a3c7;fill-opacity:1"
       d="M 20,3.5 Q 20.25,3.25 20.625,3.125 21,3 21.5,3 22,3 22.5,3 23,3 23.5,3 24,3 24.375,3.125 24.75,3.25 25,3.5 25.25,3.75 25.5,4 25.75,4.25 26,4.5 26.25,4.75 26.5,5 26.75,5.25 27,5.5 27.25,5.75 27.5,6 27.75,6.25 28,6.5 28.25,6.75 28.5,7 28.75,7.25 28.875,7.625 29,8 29,8.5 q 0,0.5 0,1 0,0.5 0,1 0,0.5 0,1 V 12 l -0.375,0.125 Q 28.25,12.25 28,12.5 27.75,12.75 27.5,13 27.25,13.25 27,13.5 26.75,13.75 26.5,14 26.25,14.25 26,14.5 25.75,14.75 25.5,15 25.25,15.25 25,15.5 24.75,15.75 24.5,16 24.25,16.25 24,16.5 23.75,16.75 23.375,16.875 23,17 22.625,16.875 22.25,16.75 22,16.5 21.75,16.25 21.5,16 21.25,15.75 21,15.5 20.75,15.25 20.5,15 20.25,14.75 20,14.5 19.75,14.25 19.5,14 19.25,13.75 19,13.5 18.75,13.25 18.5,13 18.25,12.75 18,12.5 17.75,12.25 17.5,12 17.25,11.75 17,11.5 16.75,11.25 16.5,11 16.25,10.75 16.125,10.375 16,10 16,9.5 16,9 15.953125,8.453125 L 15.90625,7.90625 15.828125,7.953125 15.75,8 15.90625,7.90625 Q 16.0625,7.8125 16.125,7.625 L 16.1875,7.4375 16.09375,7.71875 16,8 16.125,7.625 Q 16.25,7.25 16.5,7 16.75,6.75 17,6.5 17.25,6.25 17.5,6 17.75,5.75 18,5.5 18.25,5.25 18.5,5 18.75,4.75 19,4.5 19.25,4.25 19.5,4 19.75,3.75 20,3.5 m 9,8.625 V 12 11.625 11.25 11.5 q 0,0.25 0,0.5 v 0.25 -0.125"
       id="path12027" />
    <path
       style="fill:#cb8ebf;fill-opacity:1"
       d="M 12.9375,8.3125 13.125,7.875 13.0625,7.8125 13,7.75 13.125,7.875 Q 13.25,8 13.5,8 H 13.75 13.375 13 13.5 q 0.5,0 1,0 0.5,0 1,0 H 16 15.625 15.25 15.5 q 0.25,0 0.40625,-0.09375 L 16.0625,7.8125 15.984375,7.859375 15.90625,7.90625 15.953125,8.453125 Q 16,9 16,9.5 16,10 16.125,10.375 16.25,10.75 16.5,11 q 0.25,0.25 0.5,0.5 0.25,0.25 0.5,0.5 0.25,0.25 0.5,0.5 0.25,0.25 0.5,0.5 0.25,0.25 0.5,0.5 0.25,0.25 0.5,0.5 0.25,0.25 0.5,0.5 0.25,0.25 0.5,0.5 0.25,0.25 0.5,0.5 0.25,0.25 0.5,0.5 0.25,0.25 0.5,0.5 0.25,0.25 0.625,0.375 0.375,0.125 0.75,0 Q 23.75,16.75 24,16.5 24.25,16.25 24.5,16 24.75,15.75 25,15.5 25.25,15.25 25.5,15 25.75,14.75 26,14.5 26.25,14.25 26.5,14 26.75,13.75 27,13.5 27.25,13.25 27.5,13 27.75,12.75 28,12.5 28.25,12.25 28.625,12.125 L 29,12 v 0.5 q 0,0.5 0,1 0,0.5 -0.125,0.875 Q 28.75,14.75 28.5,15 28.25,15.25 28,15.5 27.75,15.75 27.5,16 27.25,16.25 27,16.5 26.75,16.75 26.5,17 26.25,17.25 26,17.5 25.75,17.75 25.5,18 25.25,18.25 25.125,18.625 25,19 25,19.5 q 0,0.5 0,1 0,0.5 -0.125,0.875 Q 24.75,21.75 24.5,22 24.25,22.25 24,22.5 23.75,22.75 23.5,23 23.25,23.25 23,23.5 22.75,23.75 22.5,24 22.25,24.25 22,24.5 21.75,24.75 21.5,25 21.25,25.25 21,25.5 20.75,25.75 20.5,26 20.25,26.25 20,26.5 19.75,26.75 19.5,27 19.25,27.25 19,27.5 18.75,27.75 18.375,27.875 18,28 17.5,28 17,28 16.5,28 16,28 15.5,28 15,28 14.625,27.875 14.25,27.75 14,27.5 13.75,27.25 13.5,27 13.25,26.75 13,26.5 12.75,26.25 12.5,26 12.25,25.75 12,25.5 11.75,25.25 11.5,25 11.25,24.75 11.125,24.375 L 11,24 11.09375,24.28125 11.1875,24.5625 11.125,24.375 q -0.0625,-0.1875 -0.1875,-0.3125 l -0.125,-0.125 0.0625,0.0625 0.0625,0.0625 0.53125,-0.03125 Q 12,24 12.5,24 q 0.5,0 1,0 0.5,0 1,0 0.5,0 0.875,-0.125 Q 15.75,23.75 16,23.5 16.25,23.25 16.5,23 16.75,22.75 17,22.5 17.25,22.25 17.5,22 17.75,21.75 18,21.5 18.25,21.25 18.5,21 18.75,20.75 19,20.5 19.25,20.25 19.5,20 19.75,19.75 19.875,19.375 20,19 20,18.5 20,18 19.875,17.625 19.75,17.25 19.5,17 19.25,16.75 19,16.5 18.75,16.25 18.5,16 18.25,15.75 18,15.5 17.75,15.25 17.5,15 17.25,14.75 17,14.5 16.75,14.25 16.5,14 16.25,13.75 16,13.5 15.75,13.25 15.375,13.125 15,13 14.5,13 14,13 13.5,13 13,13 12.625,13.125 12.25,13.25 12,13.5 11.75,13.75 11.5,14 11.25,14.25 11,14.5 10.75,14.75 10.5,15 10.25,15.25 10,15.5 9.75,15.75 9.5,16 9.25,16.25 9,16.5 8.75,16.75 8.5,17 8.25,17.25 8,17.5 7.75,17.75 7.375,17.875 L 7,18 V 17.5 Q 7,17 6.875,16.625 6.75,16.25 6.5,16 6.25,15.75 6,15.5 5.75,15.25 5.5,15 5.25,14.75 5.125,14.375 L 5,14 5.09375,14.28125 5.1875,14.5625 5.125,14.375 Q 5.0625,14.1875 4.9375,14.0625 L 4.8125,13.9375 4.875,14 4.9375,14.0625 5.46875,14.03125 Q 6,14 6.5,14 7,14 7.375,13.875 7.75,13.75 8,13.5 8.25,13.25 8.5,13 8.75,12.75 9,12.5 9.25,12.25 9.5,12 9.75,11.75 10,11.5 10.25,11.25 10.5,11 10.75,10.75 11,10.5 11.25,10.25 11.5,10 11.75,9.75 12,9.5 12.25,9.25 12.5,9 12.75,8.75 12.9375,8.3125 M 7,17.625 V 18 18.125 18.25 18 q 0,-0.25 0,-0.5 v -0.25 0.375 m 22,-5.25 V 12 11.875 11.75 12 q 0,0.25 0,0.5 v 0.25 -0.375"
       id="path12029" />
    <path
       style="fill:#f9a3c7;fill-opacity:1"
       d="M 12,13.5 Q 12.25,13.25 12.625,13.125 13,13 13.5,13 q 0.5,0 1,0 0.5,0 0.875,0.125 0.375,0.125 0.625,0.375 0.25,0.25 0.5,0.5 0.25,0.25 0.5,0.5 0.25,0.25 0.5,0.5 0.25,0.25 0.5,0.5 0.25,0.25 0.5,0.5 0.25,0.25 0.5,0.5 0.25,0.25 0.5,0.5 0.25,0.25 0.375,0.625 Q 20,18 20,18.5 20,19 19.875,19.375 19.75,19.75 19.5,20 19.25,20.25 19,20.5 18.75,20.75 18.5,21 18.25,21.25 18,21.5 17.75,21.75 17.5,22 17.25,22.25 17,22.5 16.75,22.75 16.5,23 16.25,23.25 16,23.5 15.75,23.75 15.375,23.875 15,24 14.5,24 q -0.5,0 -1,0 -0.5,0 -1,0 -0.5,0 -1.03125,0.03125 L 10.9375,24.0625 11,24.125 l 0.0625,0.0625 -0.125,-0.125 Q 10.8125,23.9375 10.625,23.875 L 10.4375,23.8125 10.71875,23.90625 11,24 10.625,23.875 Q 10.25,23.75 10,23.5 9.75,23.25 9.5,23 9.25,22.75 9,22.5 8.75,22.25 8.5,22 8.25,21.75 8,21.5 7.75,21.25 7.5,21 7.25,20.75 7.125,20.375 7,20 7,19.5 7,19 7,18.5 V 18 L 7.375,17.875 Q 7.75,17.75 8,17.5 8.25,17.25 8.5,17 8.75,16.75 9,16.5 9.25,16.25 9.5,16 9.75,15.75 10,15.5 10.25,15.25 10.5,15 10.75,14.75 11,14.5 11.25,14.25 11.5,14 11.75,13.75 12,13.5 M 7,17.875 V 18 18.375 18.75 18.5 Q 7,18.25 7,18 v -0.25 0.125"
       id="path12031" />
  </g>
</svg>
